symbols/web/flip/materialsymbolssharp/flip_wght200grad200_24px.svg

<svg xmlns="http://www.w3.org/2000/svg" height="24" width="24"><path d="M3.2 20.8V3.2h6v1.65H4.85v14.3H9.2v1.65Zm8 2.55V1.025h1.65V23.35Zm7.95-18.1v-.4h-.4V3.2h2.05v2.05Zm0 7.675v-1.85h1.65v1.85Zm-.4 7.875v-1.65h.4v-.4h1.65v2.05Zm.4-11.725V7.25h1.65v1.825Zm0 7.675v-1.825h1.65v1.825Zm-4.3 4.05v-1.65h1.9v1.65Zm0-15.95V3.2h1.9v1.65Z"/></svg>

<svg xmlns="http://www.w3.org/2000/svg" height="24" width="24"><path d="M3.2 20.8V3.2H9.2V4.85H4.85V19.15H9.2V20.8ZM11.2 23.35V1.025H12.85V23.35ZM19.15 5.25V4.85H18.75V3.2H20.8V5.25ZM19.15 12.925V11.075H20.8V12.925ZM18.75 20.8V19.15H19.15V18.75H20.8V20.8ZM19.15 9.075V7.25H20.8V9.075ZM19.15 16.75V14.925H20.8V16.75ZM14.85 20.8V19.15H16.75V20.8ZM14.85 4.85V3.2H16.75V4.85Z"/></svg>
